!!!OTL: AUS DEM DOERFLEIN DA DRUEBEN
!!!ARE: Europa, Mitteleuropa, Deutschland
!!!SCT: F0790
!!!YEM: Copyright 1995, estate of Helmut Schaffrath.
**kern
*ICvox
*Ivox
*M3/4
*k[b-e-a-]
*E-:
{16e-
16f
=1
8g
16g
16a-
4b-
8g
8b-
=2
8ee-
16dd
16cc
4b-
8r}
{16b-
16a-
=3
8g
16g
16a-
4b-
8g
8ee-
=4
8b-
8g
4e-
8r}
{8f
=5
4f
8f
8f
8f
16f
16f
=6
8.g
16g
4g
8r}
{16e-
16f
=7
4g
8g
8g
16a-
16g
16f
16g
=8
8a-
8a-
4a-
4r
=9
4d
4.r}
{16e-
16f
=10
8g
16g
16a-
4b-
8g
8b-
=11
8ee-
16dd
16cc
4b-
8r}
{16e-
16f
=12
8g
16g
16a-
4b-
8g
8e-
=13
8f
8f
4e-
8r}
{16g
16a-
=14
4b-
4b-
4b-
=15
4cc
4cc}
{4cc
=16
4.dd
8cc
4dd
=17
4ee-
4r
4B-
=18
2B-
8r}
==
!!!AGN: Geselligkeits -, Tageszeiten - Lied, Abend
!!!ONB: ESAC (Essen Associative Code) Database: FINK
!!!AMT: simple triple
!!!AIN: vox
!!!EED: Helmut Schaffrath
!!!EEV: 1.0
*-
